X:41
T:Mountain Top, The
R:reel
Z:Transcribed by Dave Marshall
M:C|
K:G
|:B~G3 EGDE|G2Bd edgd|B~G3 EGDG| B2Ac BGGA:|
|Bd (3ddd edBA|Bdef gfed|Bd (3ddd edgd|BdAc BGGA|
Bd (3ddd edBA|Bdef ~g3a|bgaf gfed|egfa gedc|
